X: 5057
T: Bridal Festival Quadrille
R: jig
M: 6/8
K: Bminor
|:FBc dcB|FBc dcB|FBc dcB|f3 f2d|
cff cff|cff f2e|fgf edc|1 B3 B2G:|2 B3 BcB||
K: Dmaj
|:A3 FAd|f2f f2c|f2e d2c|B3 B2A|
B2c dcB|AFA f2d|ABA ABc|1 dcB ABA:|2 d3 A2G||

